X: 88
T:Trent
% Nottingham Music Database
S:David Bradley (Feb 89), via PR
M:4/4
L:1/4
K:D
D/2E/2|"D"FD "D#/dim"FA|"Em"G"A7"E2D/2E/2|"D"FD "D#/dim"FA|\
"Em"G3"A7"B/2c/2|"D"dd dc|
"G"BB "D"A2|"E7"B/2c/2d2B|"A"c3"A7"D/2E/2|"D"FD "D#/dim"FA|\
"Em"G"A7"E2D/2E/2|
"D"FD "D#/dim"FA|"Em"G3"A7"B/2c/2|"G"d=f ed|"D"fd A2|"G"B/2c/2"A7"d2c\
|"D"d3||
d/2c/2|"G"BB3|"D"AA3|"Em"A"A7"G2A|"D"F2 -F3/2F/2|"E7"EE B3/2B/2|\
"A"EE c3/2c/2|"E7"de cB|"A7"A3D/2E/2|
"D"FD "D#/dim"FA|"Em"G"A7"E2D/2E/2|"D"FD "D#/dim"FA|"Em"G3"A7"B/2c/2|\
"G"d=f ed|"D"fd A2|"G"B/2c/2d/2e/2 "A7"fe|"D"d3||<end>
<start>
